src/assets/icons/science-history,simple,history.svg

<svg width="48" height="48" viewBox="0 0 48 48" fill="none" xmlns="http://www.w3.org/2000/svg">
<rect opacity="0.2" x="5" y="5" width="38" height="38" rx="4" fill="black"/>
<g opacity="0.6">
<path d="M18 34C18 36.2091 16.2091 38 14 38C11.7909 38 10 36.2091 10 34C10 31.7909 11.7909 30 14 30C16.2091 30 18 31.7909 18 34Z" fill="black"/>
<path d="M36 34C36 36.2091 34.2091 38 32 38C29.7909 38 28 36.2091 28 34C28 31.7909 29.7909 30 32 30C34.2091 30 36 31.7909 36 34Z" fill="black"/>
<path d="M14 35H32V38H14V35Z" fill="black"/>
</g>
<path opacity="0.6" d="M27 18V29M23 18V29M19 20V29" stroke="black" stroke-width="2" stroke-linecap="round"/>
<path fill-rule="evenodd" clip-rule="evenodd" d="M19.5103 14.7349C19.7901 14.3152 20.3385 14.1696 20.7896 14.3951L23.4809 15.7408C23.8019 15.9013 24.1843 15.8775 24.4829 15.6784L28.4453 13.0368C29.1099 12.5938 30 13.0702 30 13.8689V30.5356C28.8044 31.2272 28 32.5199 28 34.0005C28 34.3457 28.0437 34.6808 28.126 35.0004H17.874C17.9563 34.6808 18 34.3457 18 34.0005C18 32.5199 17.1956 31.2272 16 30.5356V20.3031C16 20.1057 16.0584 19.9127 16.1679 19.7484L19.5103 14.7349ZM23 17.0004C23.5523 17.0004 24 17.4481 24 18.0004V29.0004C24 29.5526 23.5523 30.0004 23 30.0004C22.4477 30.0004 22 29.5526 22 29.0004V18.0004C22 17.4481 22.4477 17.0004 23 17.0004ZM27 17.0004C27.5523 17.0004 28 17.4481 28 18.0004V29.0004C28 29.5526 27.5523 30.0004 27 30.0004C26.4477 30.0004 26 29.5526 26 29.0004V18.0004C26 17.4481 26.4477 17.0004 27 17.0004ZM19 19.0004C19.5523 19.0004 20 19.4481 20 20.0004V29.0004C20 29.5526 19.5523 30.0004 19 30.0004C18.4477 30.0004 18 29.5526 18 29.0004V20.0004C18 19.4481 18.4477 19.0004 19 19.0004Z" fill="black"/>
</svg>

<svg xmlns="http://www.w3.org/2000/svg" width="48" height="48" fill="none" viewBox="0 0 48 48">
  <rect width="38" height="38" x="5" y="5" fill="#000" opacity=".2" rx="4"/>
  <g opacity=".6">
    <path fill="#000" d="M18 34a4 4 0 11-8 0 4 4 0 018 0zM36 34a4 4 0 11-8 0 4 4 0 018 0z"/>
    <path fill="#000" d="M14 35h18v3H14v-3z"/>
  </g>
  <path stroke="#000" stroke-linecap="round" stroke-width="2" d="M27 18v11m-4-11v11m-4-9v9" opacity=".6"/>
  <path fill="#000" fill-rule="evenodd" d="M19.51 14.735a1 1 0 011.28-.34l2.69 1.346a1 1 0 001.003-.063l3.962-2.641a1 1 0 011.555.832v16.667A3.998 3.998 0 0028.126 35H17.874A4.005 4.005 0 0016 30.536V20.303a1 1 0 01.168-.555l3.342-5.013zM23 17a1 1 0 011 1v11a1 1 0 01-2 0V18a1 1 0 011-1zm4 0a1 1 0 011 1v11a1 1 0 01-2 0V18a1 1 0 011-1zm-8 2a1 1 0 011 1v9a1 1 0 01-2 0v-9a1 1 0 011-1z" clip-rule="evenodd"/>
</svg>
